icons/storybook-dark.svg

<svg width="256" height="256" viewBox="0 0 256 256" fill="none" xmlns="http://www.w3.org/2000/svg">
<g clip-path="url(#clip0_545_5)">
<path d="M206 0H50C22.3858 0 0 22.3858 0 50V206C0 233.614 22.3858 256 50 256H206C233.614 256 256 233.614 256 206V50C256 22.3858 233.614 0 206 0Z" fill="#282828"/>
<path d="M55.0888 210.905L49.0071 48.8558C48.8062 43.5039 52.9098 38.9683 58.255 38.6342L196.089 30.0196C201.53 29.6795 206.216 33.8145 206.556 39.2552C206.569 39.4602 206.576 39.6656 206.576 39.8709V216.452C206.576 221.904 202.156 226.323 196.705 226.323C196.557 226.323 196.41 226.32 196.262 226.313L64.5095 220.396C59.3783 220.165 55.2814 216.038 55.0888 210.905V210.905Z" fill="#FF4785"/>
<path d="M165.358 54.1312L166.299 31.4873L185.228 30L186.043 53.3519C186.072 54.1646 185.436 54.8465 184.623 54.8749C184.275 54.887 183.934 54.7754 183.661 54.56L176.361 48.8096L167.719 55.3655C167.071 55.857 166.147 55.7302 165.656 55.0823C165.449 54.8095 165.344 54.4732 165.358 54.1312ZM141.15 103.997C141.15 107.837 167.017 105.997 170.489 103.299C170.489 77.1479 156.457 63.4059 130.762 63.4059C105.067 63.4059 90.6705 77.3617 90.6705 98.2955C90.6705 134.755 139.874 135.453 139.874 155.34C139.874 160.922 137.14 164.237 131.127 164.237C123.291 164.237 120.193 160.235 120.557 146.628C120.557 143.676 90.6705 142.756 89.7594 146.628C87.4391 179.602 107.983 189.113 131.491 189.113C154.271 189.113 172.13 176.971 172.13 154.991C172.13 115.915 122.197 116.961 122.197 97.5977C122.197 89.7475 128.029 88.7008 131.491 88.7008C135.136 88.7008 141.696 89.3432 141.15 103.997Z" fill="white"/>
</g>
<defs>
<clipPath id="clip0_545_5">
<rect width="256" height="256" fill="white"/>
</clipPath>
</defs>
</svg>

<svg xmlns="http://www.w3.org/2000/svg" width="256" height="256" fill="none"><g clip-path="url(#clip0_545_5)"><path fill="#282828" d="M206 0H50C22.386 0 0 22.386 0 50v156c0 27.614 22.386 50 50 50h156c27.614 0 50-22.386 50-50V50c0-27.614-22.386-50-50-50"/><path fill="#FF4785" d="m55.089 210.905-6.082-162.05a9.87 9.87 0 0 1 9.248-10.22l137.834-8.615c5.441-.34 10.127 3.795 10.467 9.235q.02.307.02.616v176.581c0 5.452-4.42 9.871-9.871 9.871q-.222 0-.443-.01L64.51 220.396a9.87 9.87 0 0 1-9.421-9.491"/><path fill="#fff" d="m165.358 54.131.941-22.644L185.228 30l.815 23.352a1.472 1.472 0 0 1-2.382 1.208l-7.3-5.75-8.642 6.555a1.472 1.472 0 0 1-2.361-1.234m-24.208 49.866c0 3.84 25.867 2 29.339-.698 0-26.151-14.032-39.893-39.727-39.893s-40.091 13.956-40.091 34.89c0 36.459 49.203 37.157 49.203 57.044 0 5.582-2.734 8.897-8.747 8.897-7.836 0-10.934-4.002-10.57-17.609 0-2.952-29.886-3.872-30.798 0-2.32 32.974 18.224 42.485 41.732 42.485 22.78 0 40.639-12.142 40.639-34.122 0-39.076-49.933-38.03-49.933-57.393 0-7.85 5.832-8.897 9.294-8.897 3.645 0 10.205.642 9.659 15.296"/></g><defs><clipPath id="clip0_545_5"><path fill="#fff" d="M0 0h256v256H0z"/></clipPath></defs></svg>
